build/img/icon-user.svg

<svg width="25" height="25" viewBox="0 0 25 25" fill="none" xmlns="http://www.w3.org/2000/svg">
<path fill-rule="evenodd" clip-rule="evenodd" d="M12.0576 13.229C7.98278 13.229 4.61188 16.2879 4.11951 20.231C4.05108 20.779 4.50536 21.229 5.05765 21.229C5.60993 21.229 6.04891 20.7779 6.14028 20.2332C6.61603 17.3972 9.08858 15.229 12.0576 15.229C15.0267 15.229 17.4993 17.3972 17.975 20.2332C18.0664 20.7779 18.5054 21.229 19.0576 21.229C19.6099 21.229 20.0642 20.779 19.9958 20.231C19.5034 16.2879 16.1325 13.229 12.0576 13.229Z" fill="#34AADD"/>
<path d="M12.0576 11.229C14.2636 11.229 16.0576 9.435 16.0576 7.229C16.0576 5.023 14.2636 3.229 12.0576 3.229C9.85162 3.229 8.05762 5.023 8.05762 7.229C8.05762 9.435 9.85162 11.229 12.0576 11.229" stroke="#34AADD" stroke-width="2"/>
</svg>

<svg width="25" height="25" fill="none" xmlns="http://www.w3.org/2000/svg"><path fill-rule="evenodd" clip-rule="evenodd" d="M12.058 13.229c-4.075 0-7.446 3.059-7.938 7.002-.069.548.385.998.938.998.552 0 .99-.451 1.082-.996a6.01 6.01 0 015.918-5.004 6.01 6.01 0 015.917 5.004c.091.545.53.996 1.083.996.552 0 1.006-.45.938-.998-.493-3.943-3.863-7.002-7.938-7.002z" fill="#34AADD"/><path d="M12.058 11.229c2.206 0 4-1.794 4-4s-1.794-4-4-4-4 1.794-4 4 1.794 4 4 4" stroke="#34AADD" stroke-width="2"/></svg>
